X: 36
T: Salve regis mater sanctissima / Hic est sacerdos
N: Derived from Ort2008-Salve_regis_mater_sanctissima__Hic_est_sacerdos.krn
C: Marbrianus de Orto
%%abc-version 2.0
%%abcx-abcm2ps-target-version 5.9.1 (29 Sep 2008)
%%abc-creator hum2abc beta
%%abcx-conversion-date 2019/02/17 07:28:38
%%abc-edited-by Jesse Rodin
%%abc-edited-by Jesse Rodin 8/6/2013
%%abcx-initial-encoding-date 2013/08/07/
%%humdrum-veritas 1660073676
%%humdrum-veritas-data 3578218991
%%linebreak <none>
%%barnumbers 0
L: 1/4
M: 3/1
Q: 1/2=120
V: 1 clef=treble
V: 2 clef=treble-8
V: 3 clef=bass
V: 4 clef=bass
V: 5 clef=bass
K: F
[V:1] z12 | 
[V:2] D6C=B,D2C2 | 
[V:3] z12 | 
[V:4] z12 | 
[V:5] D,,8E,,4 | 
[V:1] D6C=B,D2C2 | 
[V:2] D2F4EDE4 | 
[V:3] z12 | 
[V:4] z12 | 
[V:5] D,,4z4G,,2A,,2 | 
[V:1] D4F8 | 
[V:2] D4A8 | 
[V:3] z12 | 
[V:4] D,3C,/=B,,/D,2C,2D,2F,2- | 
[V:5] B,,4z2F,,4D,,2 | 
[V:1] G4A4G2F2- | 
[V:2] z2c4c2B4 | 
[V:3] z12 | 
[V:4] F,2E,2F,4z2B,,2 | 
[V:5] C,,4z4z4 | 
[V:1] F2E2F2G3F/E/D2 | 
[V:2] G4F2E2D3B, | 
[V:3] z12 | 
[V:4] C,4D,2G,,2z2G,2 | 
[V:5] z4D,,2E,,F,,G,,A,,B,,2 | 
[V:1] E2F4D4^C2 | 
[V:2] C4D4A4 | 
[V:3] z12 | 
[V:4] A,4F,2G,2E,4 | 
[V:5] A,,2F,,2B,,4A,,4 | 
[V:1] D4z4z4 | 
[V:2] B4A2G2F2D2 | 
[V:3] G,,12- | 
[V:4] D,2G,2A,2D,2z2A,,2- | 
[V:5] z2G,,2F,,2G,,2D,,3E,, | 
[V:1] z12 | 
[V:2] A2G2E2A2G4 | 
[V:3] G,,4F,,8 | 
[V:4] A,,2=B,,2C,2A,,2z4 | 
[V:5] F,,2G,,2A,,2G,,F,,E,,4 | 
[V:1] A,4=B,2A,2D3E | 
[V:2] F4G2A2B2G2 | 
[V:3] G,,12 | 
[V:4] A,,2D,3E,F,2D,2z2 | 
[V:5] D,,4G,,2F,,2G,,4 | 
[V:1] F4z2D2F3E | 
[V:2] A6G2A4 | 
[V:3] G,,12- | 
[V:4] A,,2D,2A,,2=B,,2A,,2D,C, | 
[V:5] F,,2D,,2F,,2G,,2D,,4 | 
[V:1] DC=B,2A,2G,2A,2F,2- | 
[V:2] z2D2F2D2z2A2 | 
[V:3] G,,12- | 
[V:4] =B,,A,,G,,2D,2B,,2A,,4 | 
[V:5] G,,4F,,2G,,2D,,4 | 
[V:1] F,2G,3A,B,2A,2D2- | 
[V:2] d3cBAG2z2G2 | 
[V:3] G,,12- | 
[V:4] B,,4z4A,,2B,,2- | 
[V:5] z2G,,4G,,2F,,2G,,2 | 
[V:1] DEFGA2F2G4 | 
[V:2] F2B2A2B4G2 | 
[V:3] G,,12 | 
[V:4] B,,C,D,E,F,2D,2z2B,,2 | 
[V:5] B,,3A,,F,,2B,,2G,,4 | 
[V:1] A3GFED2z2G2- | 
[V:2] c4z4=B4 | 
[V:3] B,,8C,4- | 
[V:4] A,,2C,2D,4D,2E,2- | 
[V:5] F,,4B,,3A,,G,,F,,E,,2 | 
[V:1] GFEDC2F3EDC | 
[V:2] c6A2d4 | 
[V:3] C,4D,8 | 
[V:4] E,2E,2F,4F,2z2 | 
[V:5] C,3B,,A,,G,,F,,2D,,4 | 
[V:1] =B,2E3DD2C2A,2 | 
[V:2] z2=B2A8 | 
[V:3] C,4B,,8 | 
[V:4] E,3=B,,D,4z2D,2 | 
[V:5] E,,4z4F,,4 | 
[V:1] z2D4C2=B,2G,2 | 
[V:2] G3F/E/D2E2D2d2- | 
[V:3] C,8C,4 | 
[V:4] E,2=B,,4C,2D,4 | 
[V:5] E,,2G,,2z4G,,4 | 
[V:1] A,2A3GFED2F2- | 
[V:2] dcA4B4c2 | 
[V:3] B,,12 | 
[V:4] z4D,3E,F,G,A,2 | 
[V:5] D,3E,F,2B,,4F,,2 | 
[V:1] FED2C2D4^C2 | 
[V:2] F2zc2A2GA4 | 
[V:3] B,,4A,,2G,,2A,,4 | 
[V:4] D,2z2z4C,2A,,2 | 
[V:5] B,,3F,,A,,2B,,2A,,4 | 
[V:1] D8z4 | 
[V:2] F4z4z4 | 
[V:3] G,,8z4 | 
[V:4] A,,4z4A,,4 | 
[V:5] D,,4z2D,,3E,,F,,2- | 
[V:1] z12 | 
[V:2] z12 | 
[V:3] z12 | 
[V:4] C,4D,2C,2E,D,C,=B,, | 
[V:5] F,,G,,A,,2D,,2A,,2G,,2A,,2- | 
[V:1] z12 | 
[V:2] z2D2G8 | 
[V:3] z12 | 
[V:4] A,,2D,4C,2=B,,2G,,2 | 
[V:5] A,,2F,,2E,,4z4 | 
[V:1] z12 | 
[V:2] A3GFED4G2- | 
[V:3] z12 | 
[V:4] D,2C,2D,3C,=B,,A,,G,,2 | 
[V:5] z12 | 
[V:1] z2A,2E4F4 | 
[V:2] G2F2E2C2D2A2 | 
[V:3] z12 | 
[V:4] C,2D,2A,,4z4 | 
[V:5] z12 | 
[V:1] G2A3GFED2G2- | 
[V:2] =B2c2d3c=BAGF | 
[V:3] z12 | 
[V:4] z4z4D,4 | 
[V:5] z12 | 
[V:1] G2F3ED2E4 | 
[V:2] E2D4d4^c2 | 
[V:3] z12 | 
[V:4] C,2D,2=B,,4A,,4 | 
[V:5] z12 | 
[V:1] D4z2F3ED2 | 
[V:2] d6A4=B2 | 
[V:3] G,,12 | 
[V:4] z2A,3G,F,E,D,2=B,,2 | 
[V:5] D,,8F,,2G,,2 | 
[V:1] C2D3CA,2z2A2- | 
[V:2] c2F2z2c4c2 | 
[V:3] B,,12- | 
[V:4] A,,2z2D,E,F,G,A,3G, | 
[V:5] A,,2B,,3A,,F,,4F,,2 | 
[V:1] AGFED2C2D2F2 | 
[V:2] d3cA4z2A2 | 
[V:3] B,,12 | 
[V:4] F,E,D,3E,F,2D,4 | 
[V:5] D,,3E,,F,,G,,A,,2B,,2D,2 | 
[V:1] E8D4- | 
[V:2] c8z2=B2- | 
[V:3] C,12- | 
[V:4] z2E,2G,2C,2=B,,2G,,2- | 
[V:5] C,8G,,4 | 
[V:1] D4G4G3F | 
[V:2] B2=B4c4G2 | 
[V:3] C,12- | 
[V:4] G,,2D,2E,4C,4 | 
[V:5] z2G,,2E,,2C,,2z2C,2- | 
[V:1] E4D8 | 
[V:2] c4=B4z4 | 
[V:3] C,12 | 
[V:4] z2E,2G,3F,D,4 | 
[V:5] C,2C,2G,,3A,,B,,4 | 
[V:1] C3DE2D4^C2 | 
[V:2] E2F2C2F2E4 | 
[V:3] D,12 | 
[V:4] E,2A,,4D,2C,2A,,2 | 
[V:5] A,,4z2D,,2A,,4 | 
[V:1] D4z2F2E2D2 | 
[V:2] D8E2F2 | 
[V:3] D,12- | 
[V:4] z2F,3E,D,2C,2D,2 | 
[V:5] D,,8A,,2D,,2 | 
[V:1] C2D2z2F2E2A2- | 
[V:2] E2D2A,2z2A3=B | 
[V:3] D,12- | 
[V:4] z2F,2E,2A,3G,F,2 | 
[V:5] A,,2D,2C,2D,2A,,2D,,2 | 
[V:1] AGF2E2D2C2D2 | 
[V:2] c2d2A2z2E2F2- | 
[V:3] D,12 | 
[V:4] E,2D,2C,2D,2z2A,,2- | 
[V:5] A,,2z2A,,2D,,2A,,2D,,2 | 
[V:1] A,3=B,C2D2C2F2- | 
[V:2] F2c2A4z2c2 | 
[V:3] B,,12 | 
[V:4] A,,=B,,C,D,A,,2F,3G,A,2- | 
[V:5] F,,4F,,2D,,2F,,4 | 
[V:1] FGA4G4^F2 | 
[V:2] d4z2d3cA2 | 
[V:3] G,,12- | 
[V:4] A,2F,2G,4A,4 | 
[V:5] z4G,,4D,,4 | 
[V:1] G4z2G4F2- | 
[V:2] =B8d4 | 
[V:3] G,,12 | 
[V:4] G,8z4 | 
[V:5] G,,8D,,4 | 
[V:1] F2EDE2D2z2G2- | 
[V:2] A2d2c2d4=B2 | 
[V:3] z12 | 
[V:4] D,4A,,2=B,,4G,,2 | 
[V:5] z12 | 
[V:1] G2F2E2C2D2F2- | 
[V:2] A4z2A2B2A2 | 
[V:3] z12 | 
[V:4] D,4A,,4z4 | 
[V:5] z12 | 
[V:1] F2D2z2F3EDC | 
[V:2] B3A/G/FED2z2F2- | 
[V:3] z12 | 
[V:4] z12 | 
[V:5] z12 | 
[V:1] D2C=B,A,2G,2A,4 | 
[V:2] FGAGADG4^F2 | 
[V:3] z12 | 
[V:4] z4z4D,3C, | 
[V:5] z12 | 
[V:1] G,4z4z4 | 
[V:2] G4z4z4 | 
[V:3] z4z4C,4 | 
[V:4] =B,,2G,,2A,,3B,,C,B,,E,2 | 
[V:5] G,,4F,,4E,,2C,,2 | 
[V:1] z12 | 
[V:2] z12 | 
[V:3] B,,4A,,2F,,2G,,4 | 
[V:4] A,,2D,2C,2A,,2z2D,2 | 
[V:5] D,,4z2F,,4G,,2 | 
[V:1] z12 | 
[V:2] z12 | 
[V:3] z12 | 
[V:4] F,3E,D,C,D,4^C,2 | 
[V:5] A,,2B,,3A,,G,,F,,E,,4 | 
[V:1] A,2D4C2D2F2- | 
[V:2] D2F2D2A6- | 
[V:3] B,,12 | 
[V:4] D,3C,B,,2A,,2D,4 | 
[V:5] D,,4z6D,2- | 
[V:1] F2D4F2G4 | 
[V:2] A2B4d4cB | 
[V:3] G,,12 | 
[V:4] F,4z4B,,4 | 
[V:5] D,C,B,,4B,,2G,,4 | 
[V:1] A4z2A4G2- | 
[V:2] c4d2c2B2G2 | 
[V:3] B,,8G,,4- | 
[V:4] A,,4=B,,2A,,2D,4 | 
[V:5] F,,4D,,2F,,2G,,4 | 
[V:1] G2F2G4z2G2- | 
[V:2] A4z2G4G2 | 
[V:3] G,,4A,,8 | 
[V:4] z4G,,2C,4G,,2 | 
[V:5] D,,4C,,4E,,4 | 
[V:1] G2F4E2F2G2- | 
[V:2] A4c4A2=B2 | 
[V:3] F,,12- | 
[V:4] C,2F,2G,4A,2G,2 | 
[V:5] F,,4C,,4F,,2E,,2 | 
[V:1] GFEDC2F4E2 | 
[V:2] c4z2c2c4 | 
[V:3] F,,12 | 
[V:4] E,4F,4G,4 | 
[V:5] C,,4F,,4C,,4 | 
[V:1] F3EC4F2E2 | 
[V:2] A2F3GA3=Bc2- | 
[V:3] F,,12 | 
[V:4] F,3G,A,2A,,2C,4 | 
[V:5] F,,4z2F,,3G,,A,,2- | 
[V:1] C2D2C2A,2z4 | 
[V:2] c2F2A3GFED2 | 
[V:3] B,,4B,,2B,,2B,,4 | 
[V:4] A,,2D,2z4z4 | 
[V:5] A,,2B,,2A,,2D,3C,B,,2 | 
[V:1] z12 | 
[V:2] C2D2z4z4 | 
[V:3] B,,6C,4=B,,2 | 
[V:4] C,2A,,4G,,2A,,4 | 
[V:5] A,,2D,,2F,,2E,,2D,,4 | 
[V:1] =B,3CD2E4D2 | 
[V:2] D4G2E2A3=B | 
[V:3] C,4C,4B,,4 | 
[V:4] G,,3A,,=B,,2C,2D,4 | 
[V:5] z12 | 
[V:1] C2F4E2D2G2- | 
[V:2] c2A2c4d4 | 
[V:3] B,,4C,8 | 
[V:4] A,,2D,2C,4=B,,2G,,2 | 
[V:5] z12 | 
[V:1] G2F4E4D2 | 
[V:2] d6c2A4 | 
[V:3] D,4C,2A,,2B,,4 | 
[V:4] D,4B,,2C,2D,4 | 
[V:5] z4z4D,,4 | 
[V:1] E2C2D2E2F2E2 | 
[V:2] A4z4z4 | 
[V:3] A,,4z2F,,2G,,2A,,2 | 
[V:4] C,2E,2D,2A,4G,2 | 
[V:5] A,,4B,,2A,,2F,,2C,2 | 
[V:1] A4G2E4G2 | 
[V:2] z4G4c2=B2 | 
[V:3] B,,4A,,8 | 
[V:4] F,2D,2z2C,3D,E,2 | 
[V:5] D,3A,,C,3B,,A,,2E,,2 | 
[V:1] F2E2A3GE2G2 | 
[V:2] A2G2c6=B2 | 
[V:3] z12 | 
[V:4] A,,2=B,,2A,,2C,3D,E,2 | 
[V:5] F,,2G,,2F,,2A,,4E,,2 | 
[V:1] F2E2F3E/D/C3D | 
[V:2] zd2cd2A3=Bc=B | 
[V:3] z12 | 
[V:4] D,2A,,2D,E,F,G,A,3G, | 
[V:5] z4D,,3E,,F,,G,,A,,B,, | 
[V:1] EFG3AB2A2G2- | 
[V:2] G3ABcd2z2d2 | 
[V:3] z12 | 
[V:4] E,4G,4A,2B,2 | 
[V:5] C,3B,,/A,,/G,,4F,,2G,,2 | 
[V:1] GFEDC2D4^C2 | 
[V:2] c4z2G2A4- | 
[V:3] z12 | 
[V:4] G,4A,2D,2E,4 | 
[V:5] C,4A,,2B,,2A,,4 | 
[V:1] D12 ||  
[V:2] A12 ||  
[V:3] G,,12 ||  
[V:4] D,12 ||  
[V:5] D,,12 ||  
[V:1]  [K:F] [K:clef=treble][M:2/1]E8- | 
[V:2]  [K:F] [K:clef=treble-8][M:2/1]A8- | 
[V:3]  [K:F] [K:clef=bass][M:2/1]z8 | 
[V:4]  [K:F] [K:clef=bass][M:2/1]A,,8 | 
[V:5]  [K:F] [K:clef=bass][M:2/1]A,,8- | 
[V:1] E4E4 | 
[V:2] A4A4 | 
[V:3] z8 | 
[V:4] C,4C,4 | 
[V:5] A,,4A,,4 | 
[V:1] F8 | 
[V:2] A8 | 
[V:3] z8 | 
[V:4] D,8 | 
[V:5] D,,8 | 
[V:1] E8 | 
[V:2] A8 | 
[V:3] z8 | 
[V:4] C,8 | 
[V:5] A,,6C,2 | 
[V:1] F4E2D2 | 
[V:2] D8 | 
[V:3] z8 | 
[V:4] z4G,4 | 
[V:5] B,,8 | 
[V:1] ^C8 | 
[V:2] E6F2 | 
[V:3] z8 | 
[V:4] A,8 | 
[V:5] A,,8 | 
[V:1] z8 | 
[V:2] G4A4 | 
[V:3] D,8- | 
[V:4] =B,4A,4 | 
[V:5] G,,4F,,4 | 
[V:1] z8 | 
[V:2] =B4A4 | 
[V:3] D,8 | 
[V:4] G,4A,4 | 
[V:5] G,,4D,,4 | 
[V:1] z8 | 
[V:2] c2=BAG4 | 
[V:3] C,8 | 
[V:4] z4G,,4 | 
[V:5] E,,8 | 
[V:1] z4F4 | 
[V:2] F2D2d4 | 
[V:3] D,8 | 
[V:4] A,,8 | 
[V:5] D,,8 | 
[V:1] A8 | 
[V:2] c6d2 | 
[V:3] F,8 | 
[V:4] z8 | 
[V:5] z8 | 
[V:1] G6F2 | 
[V:2] =B8 | 
[V:3] G,8 | 
[V:4] E,8- | 
[V:5] E,,8 | 
[V:1] E8 | 
[V:2] c8 | 
[V:3] A,8- | 
[V:4] E,4C,4 | 
[V:5] A,,8 | 
[V:1] D8 | 
[V:2] d8 | 
[V:3] A,8 | 
[V:4] F,8 | 
[V:5] D,,4D,4 | 
[V:1] z8 | 
[V:2] =B4c4 | 
[V:3] G,8 | 
[V:4] z8 | 
[V:5] E,4C,4 | 
[V:1] z8 | 
[V:2] A6=B2 | 
[V:3] F,8 | 
[V:4] z8 | 
[V:5] D,8 | 
[V:1] E8 | 
[V:2] c8 | 
[V:3] G,8 | 
[V:4] z2C,4E,2- | 
[V:5] C,4C,,4 | 
[V:1] F4E4 | 
[V:2] A8 | 
[V:3] z8 | 
[V:4] E,2D,4C,2 | 
[V:5] D,,E,,F,,G,,A,,4 | 
[V:1] D4E4 | 
[V:2] z8 | 
[V:3] G,8 | 
[V:4] =B,,2G,,2C,2E,2- | 
[V:5] z8 | 
[V:1] z8 | 
[V:2] z8 | 
[V:3] F,4D,4 | 
[V:4] E,2D,2F,2E,D, | 
[V:5] z4B,,4 | 
[V:1] z4F4 | 
[V:2] z2A4A2- | 
[V:3] E,4D,4 | 
[V:4] C,4D,4 | 
[V:5] A,,4D,,4 | 
[V:1] E4D4 | 
[V:2] A2G2F2ED | 
[V:3] z8 | 
[V:4] C,4z4 | 
[V:5] z8 | 
[V:1] E8 | 
[V:2] C2D4C2 | 
[V:3] z8 | 
[V:4] z4A,4 | 
[V:5] A,,8 | 
[V:1] z4E4 | 
[V:2] z2d4c2 | 
[V:3] z8 | 
[V:4] =B,4A,4- | 
[V:5] G,,4A,,4 | 
[V:1] F4E4 | 
[V:2] d4=B4 | 
[V:3] z8 | 
[V:4] A,4G,2E,2 | 
[V:5] D,,4z4 | 
[V:1] D4E4 | 
[V:2] A3=Bc4 | 
[V:3] z8 | 
[V:4] F,4E,2G,2- | 
[V:5] z2D,2C,4 | 
[V:1] G3FEDF2- | 
[V:2] =B4z2A2- | 
[V:3] z8 | 
[V:4] G,F,E,D,F,2D,2 | 
[V:5] G,,4F,,4 | 
[V:1] F2EDC2E2- | 
[V:2] A2GFE4 | 
[V:3] z8 | 
[V:4] A,3=B,A,2G,2- | 
[V:5] D,,4A,,2C,2- | 
[V:1] EDD4^C2 | 
[V:2] z2A4A2 | 
[V:3] z8 | 
[V:4] G,2F,2E,4 | 
[V:5] C,2D,2A,,4 | 
[V:1] D8 | 
[V:2] A8 | 
[V:3] z4D,4 | 
[V:4] D,8 | 
[V:5] D,,8 | 
[V:1] z8 | 
[V:2] z8 | 
[V:3] F,8 | 
[V:4] z8 | 
[V:5] z4A,,4 | 
[V:1] z8 | 
[V:2] z8 | 
[V:3] G,4A,4- | 
[V:4] z8 | 
[V:5] B,,4A,,4 | 
[V:1] z8 | 
[V:2] z8 | 
[V:3] A,4F,4 | 
[V:4] z8 | 
[V:5] D,6C,2 | 
[V:1] z8 | 
[V:2] d6c2 | 
[V:3] D,4G,4- | 
[V:4] z8 | 
[V:5] B,,6A,,2 | 
[V:1] z8 | 
[V:2] =B2A2G4 | 
[V:3] G,2F,2E,2D,2 | 
[V:4] z8 | 
[V:5] G,,6F,,2 | 
[V:1] z8 | 
[V:2] c2=B2A2G2 | 
[V:3] ^C,6=B,,2 | 
[V:4] z8 | 
[V:5] E,,8 | 
[V:1] z4A,4 | 
[V:2] F8 | 
[V:3] D,8 | 
[V:4] A,,4D,4 | 
[V:5] D,,8 | 
[V:1] C8 | 
[V:2] E4A4- | 
[V:3] z8 | 
[V:4] C,4F,4- | 
[V:5] A,,8 | 
[V:1] D4E4- | 
[V:2] A4=B4 | 
[V:3] z8 | 
[V:4] F,4G,4 | 
[V:5] z8 | 
[V:1] E4C4 | 
[V:2] G2c4A2 | 
[V:3] z8 | 
[V:4] E,4A,4- | 
[V:5] z8 | 
[V:1] A,4D4- | 
[V:2] dc=BA=B2A2 | 
[V:3] z8 | 
[V:4] A,2G,2F,2E,2 | 
[V:5] D,6C,2 | 
[V:1] D2C2=B,2A,2 | 
[V:2] G2A2z2E2- | 
[V:3] z8 | 
[V:4] D,6C,2 | 
[V:5] B,,2A,,2G,,2A,,2 | 
[V:1] ^G,6^F,2 | 
[V:2] E2E2E4 | 
[V:3] z8 | 
[V:4] =B,,2A,,2B,,4 | 
[V:5] E,,4E,,4 | 
[V:1] A,4z2A,2- | 
[V:2] C2F2E2F2 | 
[V:3] z8 | 
[V:4] z2A,,3=B,,C,2 | 
[V:5] A,,3B,,C,2F,,2- | 
[V:1] A,=B,C2D2A,2 | 
[V:2] A8- | 
[V:3] F,8- | 
[V:4] D,2A,,2D,2C,2 | 
[V:5] F,,G,,A,,2D,,2F,,2- | 
[V:1] D2C2D2F2 | 
[V:2] A4z4 | 
[V:3] F,8- | 
[V:4] D,2F,2z2D,2 | 
[V:5] F,,2F,,2D,,4 | 
[V:1] z2D2F3G | 
[V:2] D2F3GA2- | 
[V:3] F,8- | 
[V:4] F,3G,A,4 | 
[V:5] D,6D,,2 | 
[V:1] A4z2F2 | 
[V:2] A=Bc2d2c2 | 
[V:3] F,8 | 
[V:4] z2F,3G,A,2- | 
[V:5] F,,4D,,2F,,2- | 
[V:1] A2B2A4 | 
[V:2] z2d4d2 | 
[V:3] D,8- | 
[V:4] A,2G,4F,2 | 
[V:5] F,,2G,,2D,,4 | 
[V:1] G2G4^F2 | 
[V:2] d8 | 
[V:3] D,8- | 
[V:4] G,4A,4 | 
[V:5] G,,4D,,4 | 
[V:1] G4z4 | 
[V:2] =B8 | 
[V:3] D,8- | 
[V:4] G,8 | 
[V:5] G,,8 | 
[V:1] F6ED | 
[V:2] z2A4d2- | 
[V:3] D,8 | 
[V:4] z8 | 
[V:5] D,,8 | 
[V:1] F2G2E4 | 
[V:2] d2c=Bc4 | 
[V:3] z8 | 
[V:4] z4A,4 | 
[V:5] z8 | 
[V:1] z8 | 
[V:2] z2d4c=B | 
[V:3] z8 | 
[V:4] G,2F,4E,D, | 
[V:5] z8 | 
[V:1] z8 | 
[V:2] d2e2c4 | 
[V:3] z8 | 
[V:4] F,2G,2E,4 | 
[V:5] z4A,,4 | 
[V:1] z8 | 
[V:2] z8 | 
[V:3] F,8- | 
[V:4] z8 | 
[V:5] B,,4A,,2D,2- | 
[V:1] z8 | 
[V:2] z8 | 
[V:3] F,8 | 
[V:4] z8 | 
[V:5] D,C,B,,2A,,2B,,2- | 
[V:1] z8 | 
[V:2] z8 | 
[V:3] D,8- | 
[V:4] z2D,E,F,G,A,2 | 
[V:5] B,,A,,G,,4F,,2 | 
[V:1] z8 | 
[V:2] z8 | 
[V:3] D,8 | 
[V:4] B,2A,4G,2 | 
[V:5] G,,2A,,2B,,4 | 
[V:1] z4C4 | 
[V:2] c4A4 | 
[V:3] E,8- | 
[V:4] A,8 | 
[V:5] A,,8- | 
[V:1] E6F2 | 
[V:2] c8 | 
[V:3] E,8- | 
[V:4] z4A,4 | 
[V:5] A,,8 | 
[V:1] G8 | 
[V:2] =B8 | 
[V:3] E,8- | 
[V:4] G,2F,2E,2D,2 | 
[V:5] E,,8 | 
[V:1] A8 | 
[V:2] A4c4 | 
[V:3] E,8 | 
[V:4] C,4z4 | 
[V:5] A,,8 | 
[V:1] z4A4 | 
[V:2] z4A4 | 
[V:3] C,8- | 
[V:4] G,4F,4 | 
[V:5] E,,4F,,4 | 
[V:1] G2F4E2 | 
[V:2] c8 | 
[V:3] C,8 | 
[V:4] E,2F,2G,4 | 
[V:5] C,,8 | 
[V:1] F4z4 | 
[V:2] z2F2E2F2 | 
[V:3] C,8- | 
[V:4] F,2A,2G,2F,2- | 
[V:5] F,,4C,,4- | 
[V:1] z4A4 | 
[V:2] G4F4 | 
[V:3] C,8 | 
[V:4] F,2E,2F,4 | 
[V:5] C,,4F,,4 | 
[V:1] G4F4 | 
[V:2] z2B4A2- | 
[V:3] z8 | 
[V:4] z8 | 
[V:5] G,,4D,4 | 
[V:1] E4G4 | 
[V:2] A2G4FE | 
[V:3] z8 | 
[V:4] z8 | 
[V:5] C,4C,4 | 
[V:1] F6ED | 
[V:2] DEFGA=Bcd | 
[V:3] z8 | 
[V:4] z8 | 
[V:5] z2D,4C,B,, | 
[V:1] E2D2E4 | 
[V:2] c2d4^c2 | 
[V:3] z8 | 
[V:4] z4z2A,2- | 
[V:5] A,,2B,,2A,,4 | 
[V:1] D4z4 | 
[V:2] d4z4 | 
[V:3] z8 | 
[V:4] A,2G,F,E,2F,2- | 
[V:5] D,,E,,F,,G,,A,,2D,,2- | 
[V:1] z8 | 
[V:2] z8 | 
[V:3] z8 | 
[V:4] F,2E,D,C,2D,2- | 
[V:5] D,,E,,F,,G,,A,,2D,,E,, | 
[V:1] z8 | 
[V:2] z8 | 
[V:3] z8 | 
[V:4] D,2C,2D,2G,,A,, | 
[V:5] F,,G,,A,,2F,,2G,,2- | 
[V:1] z8 | 
[V:2] z8 | 
[V:3] z8 | 
[V:4] =B,,C,D,E,F,G,A,2- | 
[V:5] G,,A,,B,,C,D,E,F,2- | 
[V:1] z8 | 
[V:2] z8 | 
[V:3] z8 | 
[V:4] A,2F,2E,4 | 
[V:5] F,2D,4^C,2 | 
[V:1] z8 | 
[V:2] z8 | 
[V:3] F,4F,4 | 
[V:4] D,4z4 | 
[V:5] D,4z4 | 
[V:1] z8 | 
[V:2] z8 | 
[V:3] F,8 | 
[V:4] z8 | 
[V:5] D,4A,,4 | 
[V:1] z8 | 
[V:2] d4d4 | 
[V:3] F,8- | 
[V:4] z8 | 
[V:5] B,,8 | 
[V:1] z8 | 
[V:2] c8 | 
[V:3] F,8 | 
[V:4] z8 | 
[V:5] F,,8- | 
[V:1] z8 | 
[V:2] c8 | 
[V:3] F,8 | 
[V:4] A,4A,4 | 
[V:5] F,,8 | 
[V:1] F4F4 | 
[V:2] d8 | 
[V:3] F,4F,4 | 
[V:4] A,8 | 
[V:5] D,,8 | 
[V:1] A8 | 
[V:2] c8 | 
[V:3] F,8- | 
[V:4] A,4A,,4 | 
[V:5] F,,8 | 
[V:1] A6GF | 
[V:2] z4A4 | 
[V:3] F,8 | 
[V:4] D,4C,4 | 
[V:5] D,,4F,,4 | 
[V:1] E8 | 
[V:2] c8 | 
[V:3] G,8 | 
[V:4] C,8 | 
[V:5] C,,8 | 
[V:1] E8 | 
[V:2] G6E2 | 
[V:3] G,8 | 
[V:4] C,8 | 
[V:5] E,,8 | 
[V:1] F6F2 | 
[V:2] A6=B2 | 
[V:3] F,6G,2 | 
[V:4] D,8 | 
[V:5] D,,4D,4 | 
[V:1] E4D4 | 
[V:2] c4A4 | 
[V:3] A,8- | 
[V:4] E,4F,4 | 
[V:5] C,2A,,2D,4 | 
[V:1] C8 | 
[V:2] z8 | 
[V:3] A,8- | 
[V:4] E,8 | 
[V:5] A,,8 | 
[V:1] F8 | 
[V:2] d8 | 
[V:3] A,8- | 
[V:4] D,8 | 
[V:5] D,,8 | 
[V:1] A6F2 | 
[V:2] c8- | 
[V:3] A,8 | 
[V:4] z4A,,4 | 
[V:5] F,,6G,,2 | 
[V:1] E4F2ED | 
[V:2] c4A4 | 
[V:3] A,8- | 
[V:4] C,4D,4 | 
[V:5] A,,4D,,4 | 
[V:1] CDEFE2F2- | 
[V:2] z2E4A2 | 
[V:3] A,8- | 
[V:4] A,,2C,2C,2D,2- | 
[V:5] z2A,,3G,,F,,E,, | 
[V:1] F2EDC2E2- | 
[V:2] d2c=BA2c2- | 
[V:3] A,8- | 
[V:4] D,E,F,G,A,2A,,2 | 
[V:5] D,,4z4 | 
[V:1] EDD4^C2 | 
[V:2] c2A4A2 | 
[V:3] A,8 | 
[V:4] C,2D,2E,4 | 
[V:5] z2D,,2A,,4 | 
[V:1] D4z4 | 
[V:2] A4z4 | 
[V:3] A,4A,4 | 
[V:4] D,4z4 | 
[V:5] D,,4z2F,,2- | 
[V:1] z8 | 
[V:2] z8 | 
[V:3] G,2E,2F,4 | 
[V:4] z8 | 
[V:5] F,,2E,,4D,,2 | 
[V:1] z8 | 
[V:2] z8 | 
[V:3] E,4z2C,2 | 
[V:4] z8 | 
[V:5] E,,3F,,G,,2A,,2 | 
[V:1] z8 | 
[V:2] z8 | 
[V:3] D,2E,2F,4- | 
[V:4] z8 | 
[V:5] B,,2C,2D,2A,,2- | 
[V:1] z8 | 
[V:2] z8 | 
[V:3] F,2E,D,E,4 | 
[V:4] z8 | 
[V:5] A,,2D,4^C,2 | 
[V:1] (3:2:2A8A4 | 
[V:2] (3:2:2F8A4 | 
[V:3] D,4z4 | 
[V:4] z8 | 
[V:5] D,4z4 | 
[V:1] (3G4E4G4 | 
[V:2] (3:2:2=B4c8 | 
[V:3] z8 | 
[V:4] z8 | 
[V:5] z8 | 
[V:1] (3:2:2F8F4 | 
[V:2] (3d4d4d4 | 
[V:3] z8 | 
[V:4] z8 | 
[V:5] z8 | 
[V:1] (3:2:2E8z4 | 
[V:2] (3:2:2c8z4 | 
[V:3] z8 | 
[V:4] z8 | 
[V:5] (3:2:2A,,8A,,4 | 
[V:1] z8 | 
[V:2] z8 | 
[V:3] z8 | 
[V:4] (3:2:2A,8A,4 | 
[V:5] (3C,4D,4F,4 | 
[V:1] z8 | 
[V:2] z8 | 
[V:3] z8 | 
[V:4] (3G,4E,4G,4 | 
[V:5] (3:2:2E,8E,4 | 
[V:1] z8 | 
[V:2] (3:2:2A8A4 | 
[V:3] z8 | 
[V:4] (3:2:2F,8F,4 | 
[V:5] D,8 | 
[V:1] (3:2:2G8G4 | 
[V:2] (3:2:2=B8=B4 | 
[V:3] z8 | 
[V:4] (3:2:2E,8z4 | 
[V:5] z8 | 
[V:1] (3F4D4F4 | 
[V:2] (3d4d4d4- | 
[V:3] z8 | 
[V:4] z8 | 
[V:5] z8 | 
[V:1] (3:2:2E4E8 | 
[V:2] (3:2:2d4^c8 | 
[V:3] z8 | 
[V:4] (3:2:2A,8A,4 | 
[V:5] z8 | 
[V:1] D4z4 | 
[V:2] d4z4 | 
[V:3] z8 | 
[V:4] (3:2:2F,8G,4 | 
[V:5] (3:2:2B,,8B,,4 | 
[V:1] z8 | 
[V:2] z8 | 
[V:3] z8 | 
[V:4] (3:2:2F,4E,8 | 
[V:5] (3A,,4G,,4A,,4 | 
[V:1] z8 | 
[V:2] (3z4z4E4 | 
[V:3] z8 | 
[V:4] (3:2:2D,8^C,4 | 
[V:5] (3:2:2F,,4E,,8 | 
[V:1] (3A,4=B,4A,4 | 
[V:2] (3F4D4F4 | 
[V:3] z8 | 
[V:4] (3:2:2D,8A,,4 | 
[V:5] (3D,,4G,,4F,,4 | 
[V:1] (3D6E2F4 | 
[V:2] DEFGA=Bc=B | 
[V:3] z8 | 
[V:4] (3=B,,4A,,4D,4 | 
[V:5] (3:2:2G,,4D,,8 | 
[V:1] (3:2:5E4D2C2=B,2A,2 | 
[V:2] A4z4 | 
[V:3] z8 | 
[V:4] (3:2:5C,4F,2E,2D,2C,2 | 
[V:5] z8 | 
[V:1] (3C4=B,6A,2 | 
[V:2] G8 | 
[V:3] z8 | 
[V:4] (3:2:2E,4D,8 | 
[V:5] (3:2:2E,,4G,,8 | 
[V:1] (3:2:2A,8^G,4 | 
[V:2] E8 | 
[V:3] z8 | 
[V:4] (3:2:2C,4=B,,8 | 
[V:5] (3:2:2A,,4E,,8 | 
[V:1] A,8 | 
[V:2] E4z4 | 
[V:3] C,8- | 
[V:4] A,,4z4 | 
[V:5] A,,8 | 
[V:1] z4E4 | 
[V:2] F4G4 | 
[V:3] C,8 | 
[V:4] A,,4G,,4 | 
[V:5] F,,4E,,4 | 
[V:1] (3:2:2F8G4 | 
[V:2] A8 | 
[V:3] D,8- | 
[V:4] F,,4A,,4- | 
[V:5] D,,6E,,2 | 
[V:1] A8 | 
[V:2] F8 | 
[V:3] D,8- | 
[V:4] A,,4D,4 | 
[V:5] F,,4D,,4 | 
[V:1] G4G4 | 
[V:2] B8 | 
[V:3] D,8- | 
[V:4] z4G,,4 | 
[V:5] G,,8 | 
[V:1] F6ED | 
[V:2] A4A4 | 
[V:3] D,8 | 
[V:4] A,,4D,4 | 
[V:5] D,,8 | 
[V:1] C3=B,A,4 | 
[V:2] A2c4c2 | 
[V:3] F,8- | 
[V:4] A,,4C,4 | 
[V:5] z4F,,4 | 
[V:1] z4A,4 | 
[V:2] F4c4 | 
[V:3] F,8- | 
[V:4] D,4C,4 | 
[V:5] B,,4A,,4 | 
[V:1] B,4A,4 | 
[V:2] d8 | 
[V:3] F,8- | 
[V:4] B,,4D,4 | 
[V:5] z4D,,4- | 
[V:1] D2C=B,A,4 | 
[V:2] D4F4 | 
[V:3] F,8 | 
[V:4] A,,4D,4 | 
[V:5] D,,4D,,4 | 
[V:1] z2G,3A,=B,C | 
[V:2] E4D4 | 
[V:3] G,8- | 
[V:4] =B,,4B,,4 | 
[V:5] E,,4G,,4 | 
[V:1] D2E2D2G2- | 
[V:2] z2G2B4- | 
[V:3] G,8 | 
[V:4] G,,2C,2D,2E,2 | 
[V:5] z4G,,4- | 
[V:1] G2FED4 | 
[V:2] B2c2B4 | 
[V:3] G,8 | 
[V:4] D,2C,2G,4 | 
[V:5] G,,2A,,2B,,2G,,2 | 
[V:1] [M:3/3](3:2:2E8F4 | 
[V:2] [M:3/3](3:2:2G8A4 | 
[V:3] z8 | 
[V:4] [M:3/3](3:2:2E,8D,4 | 
[V:5] [M:3/3](3:2:2C,8F,,4 | 
[V:1] (3:2:2G8E4 | 
[V:2] =B8- | 
[V:3] z8 | 
[V:4] (3:2:2E,8G,4- | 
[V:5] (3:2:2E,,8E,,4 | 
[V:1] (3:2:2D8F4 | 
[V:2] (3B4=B4A4 | 
[V:3] z8 | 
[V:4] (3:2:2G,4D,8 | 
[V:5] (3:2:2G,,8F,,4 | 
[V:1] (3:2:2G4A8 | 
[V:2] (3:2:2=B4d8 | 
[V:3] [M:3/3](3z4z4F,4 | 
[V:4] (3:2:2E,4F,8 | 
[V:5] (3:2:2E,,4D,,8 | 
[V:1] (3:2:2G8C4 | 
[V:2] (3:2:2=B8A4 | 
[V:3] (3:2:2G,8E,4 | 
[V:4] (3D,4z4z4 | 
[V:5] (3:2:2G,,8A,,4 | 
[V:1] (3:2:2D4F8 | 
[V:2] (3:2:4d6c2A2=B2 | 
[V:3] (3:2:2D,8F,4 | 
[V:4] (3:2:2F,8D,4 | 
[V:5] (3:2:2B,,4D,8 | 
[V:1] E8- | 
[V:2] c8 | 
[V:3] (3:2:2G,8A,4 | 
[V:4] (3:2:5E,2D,2C,2=B,,2A,,4 | 
[V:5] C,8 | 
[V:1] (3:2:2E4G8 | 
[V:2] z8 | 
[V:3] (3:2:2G,8C,4 | 
[V:4] (3C,6=B,,2G,,4 | 
[V:5] (3:2:2C,,8E,,4 | 
[V:1] (3F6E2C4 | 
[V:2] (3d6c2A4 | 
[V:3] (3:2:2D,8F,4 | 
[V:4] (3:2:2A,,8A,4 | 
[V:5] (3:2:2D,,8z4 | 
[V:1] (3D4F6E2 | 
[V:2] (3:2:2=B4d8 | 
[V:3] (3:2:2D,8F,4 | 
[V:4] (3:2:2G,4A,8 | 
[V:5] (3G,,4F,,4D,,4 | 
[V:1] (3C4E4D4 | 
[V:2] (3z4c4A4 | 
[V:3] (3:2:2E,8F,4 | 
[V:4] (3A,,4C,4D,4 | 
[V:5] (3A,,4z4z4 | 
[V:1] (3G6F2D4 | 
[V:2] (3:2:2c8A4 | 
[V:3] (3:2:2C,8F,4 | 
[V:4] (3:2:2E,8A,4 | 
[V:5] z8 | 
[V:1] (3:2:2A8G4- | 
[V:2] (3:2:2c8d4 | 
[V:3] (3E,4F,4D,4 | 
[V:4] (3A,,4C,4G,,4 | 
[V:5] (3:2:2A,,8B,,4 | 
[V:1] (3G4E4F4 | 
[V:2] (3=B4c4A4 | 
[V:3] (3E,4C,4D,4- | 
[V:4] (3:2:2=B,,4A,,8 | 
[V:5] (3G,,4A,,4D,,4 | 
[V:1] (3:2:4D6^C2C2=B,2 | 
[V:2] (3:2:2G4A8 | 
[V:3] (3:2:2D,4E,8 | 
[V:4] (3z4C,4A,,4 | 
[V:5] (3:2:2B,,4A,,8 | 
[V:1] D8- | 
[V:2] F8 | 
[V:3] D,8- | 
[V:4] A,,8- | 
[V:5] D,,8- | 
[V:1] D8 |]  
[V:2] A8 |]  
[V:3] D,8 |]  
[V:4] A,,8 |]  
[V:5] D,,8 |]  



